X: 40354
T: Tom Clarke's Trip To Russia
R: reel
M: 4/4
K: Bminor
Bffe eddA|Bffe eddB|ceea aceg|gceg fgec|
Bffe eddA|Bffe eddB|ceea aceg|fgec B2 BA:|
BGBd dccA|cAce eddc|Bgge aegf|edef e2 dc|
BGBd dccA|cAce eddc|BggB Affd|1 cAfe d2 dc:|2 cAfe d4||

